-----BEGIN PGP PUBLIC KEY BLOCK-----

xsBNBFaTa+4BCACxyJ3oTNhz5oJOCu70mrxFqj/uqDfNm2K8Prr0CQ2I7yXijfTZ
GVIjURIzp+Zhmc1LhZYlNwwI9ivFFvLoS9kH2rkx9EaIuP3ljtxQskRFrX4BepR9
/EvIoi7tUuOEqCy2pRy/y7Rc7s3Qbu/sPQ17wvRQqzTKsvoh9wxat6990l1MFjlF
/xBOD4Qb9LJGzc6Y8SLEEs7l/vAesL0viOME1hVQk+fG0KFosI32aeNnnLHPZbLi
Z2YETvI5nROMhleSDusqUpVxXzkIBcVLbCyeJooRsZAhJ6AB8qvhOXx2xTBBgMpw
aE/DHF6ZkvmsVB6lRNqMLjGeLOkmqx1vjZynABEBAAHNIkJodXNoYW4gU2hhaCAo
a2RlKSA8YnNoYWhAa2RlLm9yZz7CwHcEEwEIACEFAld3rtICGwMFCwkIBwIGFQgJ
CgsCBBYCAwECHgECF4AACgkQ/geEEX+84R1tfwf9GSACMGPFi9AArBwFhaYUKB4B
JqNgCSRvQJ7gtG6YAaW+o919AtmpO+nq0JtvrSXQVLbJ1jxEMXsNJnvZByiACm91
u8z/LzMoI5C6RK13eGTTBr57LAE8lXI0xhkiSwQUAPQWJXumE1evoHExHrAi+z6a
La6QXwyqmP5amwked6S6R9GxGI2c+UPm9sVh4Lb1L/pEzeCdt7/1R1baAQ+weI1c
Vbfd4b9Qc5r/baq41CesZKz29UgorqiLyBXlWLUCClAXB/nrbAh7hR4pDhSsIExS
Tp8gBnBTpKc2NAzGZTxopcvi/SOAxkdFlfkBewXuvHOxg0S8s8z7Owaeckbj7c0y
Qmh1c2hhbiBTaGFoIChteWtvbGFiIGFkZHJlc3MpIDxic2hhaEBteWtvbGFiLmNv
bT7CwI4EEwEIADgWIQQKrHdbtkN6jZr3o6z+B4QRf7zhHQUCW4T3zwIbAwULCQgH
AgYVCgkICwIEFgIDAQIeAQIXgAAKCRD+B4QRf7zhHa3OB/0QBQ8tc6WukC9ubRd5
A1vEe5tSWvzJEB25mc+YfXj3eha9ZhGWSNF7iHQ278aKgyn4HS/Mve+A+w7ZQWtG
K1sjxC1E7qn1U1Xx5BoadbvEfN8E9Vun0NPLa/FXtz6gTnGPOkgJ6NjQuEy6aKT9
lGbHuxXBLPfGfEQrT16ny0+Nc3Is1cSIWsmyF59vZTH9Z8uJu2C04lyMkE6huTdb
Lm6YAFzN3U2B/96ZG/9GWr1EImuVg9z7vUIlENbG/ARHbdGdTqwKzjLPMhMRmSQt
9pjOA0K2/o9y7t6JgQiMC1DPl21INZHmYES9dlfyEiaLjVYkVunL/tJHXO9RIoqW
x5nPzSBCaHVzaGFuIFNoYWggPGJodXNoOTRAZ21haWwuY29tPsLAdwQTAQgAIQUC
VpNr7gIbAwULCQgHAgYVCAkKCwIEFgIDAQIeAQIXgAAKCRD+B4QRf7zhHcJCCACZ
I9Yv5YGLOPlYhxJnY7HWMI2cJxnvcrziztlJ3zearp+CLg7j8mqhkIwJTZjMy6js
Kz+HVQ9eQBGB/9s8WLtcq8TK1B3SU5JRK5ufbt516td9S6FSjkU2d6LJgFf1GLVG
M4+/mgTdyZhYzfhe+X87q5xEnbyzxn0a5Ybo0KFtsd2QMiG6ULNZaIy0hBcbvMZZ
F2NypEi0ZVKMRoJ3JYQvqL//mfROIz48+J2YU7gDnpuUsIesh7ow9b98CJYHNalP
FNSmfrpcLcAwFZ0tP/lkI15rWpdj4j9MHAiIGXWYoU3WP3jmPbXqadfUgcFJHTXK
szGwGcn4fHeLfY7GER+OzsBNBFor3b0BCACzoDyH2gsTKGGDkR3yybCeerjhj+mH
ISDX8u8Blb7TT752wuF6eqvFD0oo6LpI2n8OWT2RbgWexN0KuFcf3kU3B6GKuNAm
ocRQ5lL7em5wwhZbDFzVwkjlLZ4Xo+XJTIwrZu2sLZDg9uSUK8twJpsQHkL/NOyw
XImMvv4nUZWr9bEMlDoHIYkv57EkF/pZLY8FypLO0I/9zqZbvg/I04oNqhnTVK3n
ZG4GYbFbHb4rZribgatyGsNopV+JevYPYqMQYu+PNW5mi1dT9gbR7KlKZhO8KcOC
XUPjUwYgD7jPjqqNvJlk1aKL+Uh/UBznr4FSSgnzO0XwY/MxlSdx/w3LABEBAAHC
wHYEGAEIACAWIQQKrHdbtkN6jZr3o6z+B4QRf7zhHQUCWivdvQIbIAAKCRD+B4QR
f7zhHd90CACFf1rob/ih2CpCs8MyWKhGRCkXhakpPdVvnrRw3+9pjwdyfiH6JDWA
koBJuEf+e9KfbiAQXHMSz8E72yVO7/VLb3NJBXLvbcTVjoHtFtOOqqrkaFiMBWcW
y8HEpfF8JYYra7dUwGT67CEccs18x3hPVUyAFkH7Z470RqfCn3Ql6C4JTJG+CkRe
uaczD3+dYT0kOe29lYZsGaIfWOG+RTOHICnaLoNgof4DxVk3dChlrkkbPMSp1LoJ
N19I9PPaaPNY9Q03DHswM/UGW0rNajNT4cZf0miRBMG/0j+j2hkvTD73zKbIbs8/
0reS1nrBgjiRzBunFiJv0ABSLle1liqYzsBNBFor3YIBCAC65dX5iHSpg7pZBkuc
T5fQGK8+VFjW8fgHbMOAMFjSqtsh0+Xj+m9vBAuT9WjbJVmod+gaFuqcGRdkWnNX
1Aw6cR2usyjy6eb/TZ/tu4RnnpeSQpOl6WyXrdC7Sq7b8hKl/ELFEUsZl2P5UsDR
JaF7R5zCBH73Vm9woTVvJ/Mb36xtVjS/xZCr1l/HSFSj/Ql/v4UCJRYiCZLpce4K
f4NgFMesZwYR/4JTrj6V8fkJsbPjYAqqxjNnBhZXhFqvA0FUO4zpd2qUL2bhZxE6
izmrJXRdDmwT9IHK4c7VrllrMUU9uueqIG2DU85Czi5DDjBTZGwQz5sZQhE1MWgi
mMexABEBAAHCwawEGAEIACAWIQQKrHdbtkN6jZr3o6z+B4QRf7zhHQUCWivdggIb
AgFACRD+B4QRf7zhHcB0IAQZAQgAHRYhBLPLNmVSVAvgbumtlxGWjESSjK78BQJa
K92CAAoJEBGWjESSjK78ZUkH/3TB1XkGxvndf9qLUd1JwTt0/5yWEONUSBTzvrTU
Xtye3N6j0QBKyjZgt2Rec0TgarxMdSlcuT88tOW6bnPY6s5htx+vNZTWQtGC4OBV
yKpzIj7h6/k/nByFOsutE5fu7IQarl9MdiLvESaiVEZcVQQByxZEbBLoM6rbywNJ
uGj4tEtfI8EVUTqVOZfOMhrDmnE+AxccY+Nva+4c/eFwVLfwKRsqAWCe+ULN4J5r
fLqtWzzrFVSL+XUL+0B1MUeTFtBDPKhs1Y4Xnm6OHXaJY48WqVotdIlxKBFvokG6
Y9LdfiDcMQ55Yso5eCpddZ1PP2f3bkbWz1nPkSpEY4+Dm1Q2mgf+IOFa2is9f3Km
5Ys+YnOr97/qXt3VhjmnUU/zx8b7fcsM7E/r2kKp8ihLiHfG0gG2rpk4Py95WFvg
ZdJfejX+scS6vXCPwl0gpOLItBxzRsT+qqRTXPbC08OekMyJKn4rRfO56us6RNHc
29uOrU3d4BPtyn27632Mg0F7gvfr4PNBl3BQa+LuiMw9Nja8ozpVlIcQoObDULgh
+n2hIRUCVCTYCyWV0sD/yG4DdXvnb4KixXPiQ7SD9+LUuqROyQV9FU7tjVluzk3i
pv/at1enhxgSYo178gj7L3GgLHKhsERkEQIscJl8h07awHie3vZj7T8bnZxbYbPb
KNs/Qxpmnc7ATQRWk2vuAQgAvA+l8nsDh1/p03OJgUHy5q5jSbukV+5GP3MLwLLJ
HrzkzT84CSbZ1CUCNYgAViO1PPGn4wL1NcM2KwXxH0ON4dXD8OjTGOP3Jh3vGIpg
oJPHDWChktLDN/mCfITU0hsSiWu2N0Q8QyyvX0qhtcWulEXHLTU+e62ru8VLVRMR
aTdKhnk7TADiw6d+sGPo0mAaVWe/2f49Eg0H/UoVNBtjmTCrGb3B9SmnTlVuJE9u
yEhzexCW43TDwpmcrSfuUsYvTxR2Aq/50dagWP49KLiku9bkoc3LLM+VoJ5Jj/O3
77H6XwkCZeUpIj2r3XaHWaAQkUSsKkJ1e57NyRZoe1NvpQARAQABwsBfBBgBCAAJ
BQJWk2vuAhsMAAoJEP4HhBF/vOEdONIH/RviPwDNbm+1AITwED2duUnSGkx/ejFe
XJlrLnE5xlMtVw4fCNIWWhAf5JFhzq5mysqoYPzbYBKl7T/5KiV+a7k7fQDd00pc
SfiKwssApt95Eu8j0QA4MDbIaAn/xx91bo3HDeCnw4yLooy0mW3yGxunBqNm4Ks+
reKfTWmaH3EIRXz8AIH79yC9QzRamb1KIQz8v4+XlOyHQ48rS54RlGU30q84Vl5A
mcmykTltOc0nDEXebi92/op/2bvK4HhP5SxfJ5g+NmCdOfJ/u9i40ez+Q6q25WwI
S4kIPAgW6yBSaM0FMlA5088LBkRbkAMe268qbDkqln2HFRKl8YicHazGwE0EV2LJ
eAEIALFKHj+CtzyBB0IYA0W/VOLfKQ97+TMLUQmMvypWX9aD52xMwiXcu8cPTgBJ
eaQ5O/7omvSjyejNh96J0mGazyEw9UWJyEcpdSSYVC29g68rTTtEf/DeTSJM23RY
faGeD7iO3UcMj7X6Fm1iB6MJxesfZkBDPwJPH8rR3+ABGLXX143UBHlbS2s7GYTu
gWH/aA7mmgz5DvtH3OSY+S/X4GJJlj0OUFVpuzpUl/xvDJaxNY64t6MX9sGLJoSm
OJqdU7ZoRs5zPKQWO699r7yxE7i46sEY+astidtfqVZXzUhyLf3XyC1LgjXsLpSm
O7NVgcYbSn9/I0kuC7eRsZNvpJUAEQEAAc0lQWxlaXggUG9sIEdvbnphbGV6IDxh
bGVpeHBvbEBrZGUub3JnPsLAdwQTAQgAIQUCV2LJeAIbLwULCQgHAgYVCAkKCwIE
FgIDAQIeAQIXgAAKCRBqTyxM3IvHfxdiB/oDoBWzR4a/NH9RsmMbtlZnLwxlqqzl
/nEBQ6XtdC1pqi3CzqYARQUPAleDaELp9x/u0+DYtoFmRXoqgqJBU+IOUhZqlJmN
oDQIc/o0zEr1lD4cpeZQh655j+zP9AiywqOy8xzwME7ZDkdZOZS8151+7TWJnADt
6R4eC176BHOovgecQcIIacXPav/XuN2pHurXLyxwQcTCifJnzvnxElkM0Kz8zgLi
5gIxKGBGIKfRJM8s7HWl3VG4mjM7nxRlk7S603HWA+QJMKP6svkh6GxJup2BKT84
dwZ25WkEt75Pov6qy0GcMpbFoRcD7sQxVayG14OeT8xaw/qGN/TATMeOzsBNBFdi
yXgBCADBfvtnrOBaRhu+rnjbKLym1GVOlRGr5A+XbspVrXK9oeu5si2BNoCNLWyl
W682k9YTHKRPmgFzPbTrYDL0MrQXE/Xd+aDve2aIxq3pZ0Amb9Xf/qT0FEaSRYDx
HKQZo50lX9MYeCsxHGElDcq4qeOfC03+4wGsBK+2Ewx0uN0jWI+l0Deo99306P0a
n68jh0aYxpihFEYlv1C+Bwf3uZCqwgUVozXZFEdT0oR5CoydwylgOOMAAa81T7Go
qGzvs9YUSd60k0InE1KwN3TBuUvfJk6BtdCahV7JbJXkg8hC+lXNgPmFGMEo33K9
25CU0t4eAO+QN7jAcY3CPNYpS+SbABEBAAHCwX4EGAEIAAkFAldiyXgCGy4BKQkQ
ak8sTNyLx3/AXSAEGQEIAAYFAldiyXgACgkQp0TNr9vh1xlj3gf/XK2vhkCivFi3
0cO8MHtuT7cDNXnwLkPJB5eiupPRW4J2mXpFkVbngW95cn0yUKmm1RP0kscLltSg
LZyFyQijxufrGR0RW1e42qM4k6Cv96pUmlDj1XOh8/WDjdqQNmpI7AKJt5WLS9mU
Ntmh6gfNQ+/nzhcLRuEVhyv3EKPNGDdSF2XDRDFDhrqGdXEltkF8tI0fga34ke68
+GSuPuDI6QIH63C0VSCxzIYlfVzeHUNTxy1E6+m32+qgOZTJa7WOFPCWHjBAODfQ
5WHRK0JXxKPzvHHJ9ol/DaCilPyx4pKBqfFARZi6zBNdNzyUWFHqHY59yvL0nVhE
V5SuoI5FTPjcB/9GDRATk34SHYzRMuVzB7mp3RoyzndAO5Ed44+ysDFwxnYOHaZa
WACAkEnQGxsswZ+gIwSxikPnGZ42OQZqEoOIgn2BKCx85Q5Yb89TBudJBWrsVwhN
VszlunNHtMAm1EIsjsPlVwCFK5SmfIkrbWgYIP99x9ZcsohqFnP5hM6Ua5LvL4jy
+Arzs0by5ZAas+TDVYPxxlojlL+9RV5pTnWv+mD4C8e1/wyiacgPQfaviHujASMC
C+cCNu1IiHti5srTKOt8r3XBn3rhmWs1uwoNF1xrowqKlXLOPVdft5jQjx+93N1Q
O/Ia3/GkmvhIQ2+Ai4mLlTFS9CchHDODFt1/xsFNBGFVmzkBEAC9robLj4ZMjZ/E
hHbiYpr2/i/uW38T6qP5mwpAGela3/NWhjzp2a6rfuLTb6OtXkomcMiwzVXBm2VC
oF5z7f23c5yCk4qPFnTNcYxmql1MaRrI4x9Zb/iV6jit/FkiNPCc/89kvfWVMywC
b/0uOGRbzw9lGNQH+2bJkHLDS38PfrABikOKdi75Ux1pOl64GVnKxqfXSB63d9eD
tLELEbjvbPRdZJSuFTFLlR+uZKivsCx7LPhpS/EPyW1SnV9Jy8ZAgMHz0VZnkZnC
2W15uM8FP6ARUtxlYMptUuU79iERYKd0xwCHJT4GI3PFMjAML/XHzkzzXJgkZm1Y
Mjy2dNHKc07glA6efqrb82BzqWp6mfuUnYBlnO54yDUwUeDWuRvZJwNxv0j31eAD
YlZoPkkPX6UWqayeAcPEBPofiasxUw5mIfP/3HAsJcDjf3Oj5tYyE7ELypqTWPvS
2fBYCWwvipfxsOQmA9xvlCY2MGhAtTNceJcb324bOLpuwA2GWmsyHw+c3bvLD7PD
aeLZ7kjqu1NBqgwDESgO7sPrWKM4Gaclgr9sAtvfr/vlkHRCTZhpluZuW/JIuipr
c9O/ZigT9A9lxbQe1Cm0VPNHk+zDl/wPTv7JEC5OGPAY7G6s7bQLxp7C7FulOZcj
KWmnEBWVV1O7iee8YZQ5vZTmTNI2VQARAQABzSZKb25hdGhhbiBFc2stUmlkZGVs
bCA8anJAanJpZGRlbGwub3JnPsLBjgQTAQoAOBYhBOCj6yAvjldSjhPnL9dXRIO7
V7GNBQJhVZs5AhsDBQsJCAcCBhUKCQgLAgQWAgMBAh4BAheAAAoJENdXRIO7V7GN
cZEP/RhsneV30lQg4Qj7Jd/uFhhrvMHTatw8F18bMWr7g/sbQ0z7cewT8YM+2W29
FC4k3gZHA8Lwfq8g5LAM8Gbvaggn7LrTvglLi+hX/U4iU7LoqyH1tpyZEPD08qqU
kjER8bfLflBElISjGb7xeJMbhS+10vt8QQQlW7MqRQQo0bYB6foLrmW3avzZz/mb
2IL3RAWgowQJ9rxG+oW+3lFCjSGvxXaq/BGcDajkq9UeDGCR3RHOjkDVEX6xuS7D
76K0Y32bgYbsDzHkDHRm5vR0LXxQKUC59OQEoNLCdOdFlX4m1Lm2sUa/vXnjrpOP
AJvij+LwDt/SB1GygJ/qitO+riTtgSbmyTY84xX4dAh4Nenmk1JF3phfwa3nmJzV
u7oiCvKTsVrf8gnJUPq8MsgUuWgQ9qu0UXWRbFnnckVsj6xBGuPIgrlGk2V9RTqi
ReJTsU/RdypVzO6rshEyLWS0TCzygHrZk3IS4pORUt6itUlJSCdvZRDa3AhPUkQt
3Iso0S8oZWzP+zlXMvYFvF1pgtzi9cPqbgJJ4uQJ858uqw0jwjFM3CYyrVrLWNY2
kPIPVbeTH6Bh6nQp4Q0KXnDubcUbbpd2xMHltHEI6gma9ATha+u/OMjYgXpkAP8U
ECcF1CD+wIC4c4pbSFnOmhRai92MjbMkb905kYzU/1S3qZ9nzsFNBGFVmzkBEACU
19R68g6TnrnpUCywwCTVZJkY2JVpSlQGYXjdgC61Kt0vjMCA7sdckSqfE0qTIjxH
mDB78F2cpSfDmKEgd8GYdxMuUqTWS7UWRD3RbvDUBRLG/KMig+6HGe+NzxOv+vwC
cnvM3LAZP/k/UMbVAOYQFARvm136UOaTnq1BvsnDAMoO+US72OWVXzTWcgbJLoLq
0HKfCrA0fDKnnh0HPGQ+58qPfoWuatZwg+O60oIE2d5qLrSxAPuUJjaWD1ylNlSb
unQNbgHmM1eKK36RUNOc1fDGPWQ1E0+eZuZY5HfnHFDliZ5rsJsKrqOFhANcRu7B
pOWGVSBqms+NjkCUOGwU7ir9jgIBDxdju38uri3BCDSYPrDrsuFPSLIab/BuaEcb
zLsgAAooMbMHFy2WBqw1WtJatGhg+naoJjhaxbecaOgU140ObnqQdRd2PpLmIRAz
e5oFvj9TL6NEvkkhWoOW3MUHbV/sgilvN4puL+J+ligowbwhny+yfk0XtXZk9nU0
/en9UYUFvyQgxi9l+KE6wyl1N74RHvELtPOp60lOMCB/CAF+q5D3XI4g9LNv3kyC
Bp40Fq5XiVcMOMamNxq7vc8+2IaSzRiySeQ69hddhKf7Rm7x4ZjW3bVxFu0DAQi4
CSAsz3A+/g0z4GDrZDqZyNy0VxcXTE9ZZrihNvoTvQARAQABwsF2BBgBCgAgFiEE
4KPrIC+OV1KOE+cv11dEg7tXsY0FAmFVmzkCGwwACgkQ11dEg7tXsY0EZRAAh9Mb
JCBdbVa5h2m3AAbYG+BMZsOeSESQCuy0bM7z7WShfSafeGE/KhJuAKZtBHopLA1V
CF74h3vNwwDxAG+8qbzGxuuzV+Tx18vyiY3dWlf30L1ypq6fO53fuZSgPB0gzjCo
DcJeSDg7FdTcqMzjumys3ThvOBTHB1gwzQWueZ8CSxKvd34J7CQ7bUpxjDvgZpI3
gbdW37F11KUgLF+HtD1bO9SzTs9rdpGpFesSjoF2pl2C0plzlB40xgb+CW4GL7T2
53x1xKejCeas2E4ImmD2ONuOqp7Q31x456cQr/WqJe7A4lIDRVza2/Nd0qGBCEIL
mMlIMD+YpZdQv+WO/d6Gv65wt4O+ufjudKcIsIryz7bVC28zOiAwmVmnDhOkAakA
kIJVTMa9xyFVtquBfj9z9mg6W7LLw96tAVXT6yKkQRHkQ2/36uBgsrl2z+k+mFWm
4IS2RGgDfTtrq4nl/LGwyb9T0MDuFZ8FUPUNPK28Z1iYWb0tTda5Qc5aCraZcFr0
aR4PYToBvt5mvrV+TGvfdVzva/JjcRwtFnwoRUqSlBSJqC4WqZmkB73i16MljvT0
+4v2upmud4JKw2KTowhZjbGLlBgrAMxuDYNv953PoIbKKuD9uwdPkCrkuL1XQsBD
WsHgW9DQ4q0bObr0ZBxJWUzLj/5Ew1iFLz5OoS4=
=VsRL
-----END PGP PUBLIC KEY BLOCK-----
