-----BEGIN PGP PUBLIC KEY BLOCK-----

mQENBFfNUR8BCADDjPXScwObp7mWwUnrjqrM0gGg+pId6vqe0a5A4xr+Rgj26quK
2qJLym0mmul/uh2M8z486qDTQYQaTEppFCosH3WqFonTN2LWpHcujeVABXkAe9qo
DHBZZRMw8CXtiEwvJ/xV/MXTR7G0QCqT4HF045SAyyBjusBiiGly32JEDD4FdjHj
KKUrAJyyoc6frake7ZMO0SO3tQNwmi4T5KLSoxhi3Zgez2k9GPZEj4/W7l5Ne0zQ
7C8Tgo8wraqj/8pzjfP6+Dc2LHOTtu8DGDQkXEFa9VvuAotOtI8Kjff+bOd36WTL
L2dk69Bb7WbhRLkkavHZCdKOpfyBtVn+hGWRABEBAAG0G0RhdmlkIEZhdXJlIDxm
YXVyZUBrZGUub3JnPokBPQQTAQgAJwUCV81RHwIbAwUJCWYBgAULCQgHAgYVCAkK
CwIEFgIDAQIeAQIXgAAKCRBY0O5kikizu/01B/46hG+MaTFW1CVevZrGyPacmDRj
pQhx/ODadBkVXXaJyr7aNKT3EvAedyT82SGT/ch+aqXjZK1kEwK6zITqoOZZUt2I
CjBN4+UfLrWwlKldZShbhJ6NMHJIeYQ5EDlMw7TWVn0OPkRuDvLEasgOhxR9ZjWW
c5wlcZXXy8N+wGSR0bThzl0pdFcIy9Z3g411ZOvjUdDuWqtKUH9iy1VdVyba7FXI
x/BqAXIVsAaIFNsJBZZ7C7j1a1IlTykRLiDjh3mpyBfX4xfMTo4z6pjfQsoPebJl
TlCnwAkIxeyatGXm4OCqEA9zPVd1Ju7+XuEr6+15ENYJ4oYsZjfyScHHJdWMmQIN
BGFVmzkBEAC9robLj4ZMjZ/EhHbiYpr2/i/uW38T6qP5mwpAGela3/NWhjzp2a6r
fuLTb6OtXkomcMiwzVXBm2VCoF5z7f23c5yCk4qPFnTNcYxmql1MaRrI4x9Zb/iV
6jit/FkiNPCc/89kvfWVMywCb/0uOGRbzw9lGNQH+2bJkHLDS38PfrABikOKdi75
Ux1pOl64GVnKxqfXSB63d9eDtLELEbjvbPRdZJSuFTFLlR+uZKivsCx7LPhpS/EP
yW1SnV9Jy8ZAgMHz0VZnkZnC2W15uM8FP6ARUtxlYMptUuU79iERYKd0xwCHJT4G
I3PFMjAML/XHzkzzXJgkZm1YMjy2dNHKc07glA6efqrb82BzqWp6mfuUnYBlnO54
yDUwUeDWuRvZJwNxv0j31eADYlZoPkkPX6UWqayeAcPEBPofiasxUw5mIfP/3HAs
JcDjf3Oj5tYyE7ELypqTWPvS2fBYCWwvipfxsOQmA9xvlCY2MGhAtTNceJcb324b
OLpuwA2GWmsyHw+c3bvLD7PDaeLZ7kjqu1NBqgwDESgO7sPrWKM4Gaclgr9sAtvf
r/vlkHRCTZhpluZuW/JIuiprc9O/ZigT9A9lxbQe1Cm0VPNHk+zDl/wPTv7JEC5O
GPAY7G6s7bQLxp7C7FulOZcjKWmnEBWVV1O7iee8YZQ5vZTmTNI2VQARAQABtCZK
b25hdGhhbiBFc2stUmlkZGVsbCA8anJAanJpZGRlbGwub3JnPokCTgQTAQoAOBYh
BOCj6yAvjldSjhPnL9dXRIO7V7GNBQJhVZs5AhsDBQsJCAcCBhUKCQgLAgQWAgMB
Ah4BAheAAAoJENdXRIO7V7GNcZEP/RhsneV30lQg4Qj7Jd/uFhhrvMHTatw8F18b
MWr7g/sbQ0z7cewT8YM+2W29FC4k3gZHA8Lwfq8g5LAM8Gbvaggn7LrTvglLi+hX
/U4iU7LoqyH1tpyZEPD08qqUkjER8bfLflBElISjGb7xeJMbhS+10vt8QQQlW7Mq
RQQo0bYB6foLrmW3avzZz/mb2IL3RAWgowQJ9rxG+oW+3lFCjSGvxXaq/BGcDajk
q9UeDGCR3RHOjkDVEX6xuS7D76K0Y32bgYbsDzHkDHRm5vR0LXxQKUC59OQEoNLC
dOdFlX4m1Lm2sUa/vXnjrpOPAJvij+LwDt/SB1GygJ/qitO+riTtgSbmyTY84xX4
dAh4Nenmk1JF3phfwa3nmJzVu7oiCvKTsVrf8gnJUPq8MsgUuWgQ9qu0UXWRbFnn
ckVsj6xBGuPIgrlGk2V9RTqiReJTsU/RdypVzO6rshEyLWS0TCzygHrZk3IS4pOR
Ut6itUlJSCdvZRDa3AhPUkQt3Iso0S8oZWzP+zlXMvYFvF1pgtzi9cPqbgJJ4uQJ
858uqw0jwjFM3CYyrVrLWNY2kPIPVbeTH6Bh6nQp4Q0KXnDubcUbbpd2xMHltHEI
6gma9ATha+u/OMjYgXpkAP8UECcF1CD+wIC4c4pbSFnOmhRai92MjbMkb905kYzU
/1S3qZ9nuQINBGFVmzkBEACU19R68g6TnrnpUCywwCTVZJkY2JVpSlQGYXjdgC61
Kt0vjMCA7sdckSqfE0qTIjxHmDB78F2cpSfDmKEgd8GYdxMuUqTWS7UWRD3RbvDU
BRLG/KMig+6HGe+NzxOv+vwCcnvM3LAZP/k/UMbVAOYQFARvm136UOaTnq1BvsnD
AMoO+US72OWVXzTWcgbJLoLq0HKfCrA0fDKnnh0HPGQ+58qPfoWuatZwg+O60oIE
2d5qLrSxAPuUJjaWD1ylNlSbunQNbgHmM1eKK36RUNOc1fDGPWQ1E0+eZuZY5Hfn
HFDliZ5rsJsKrqOFhANcRu7BpOWGVSBqms+NjkCUOGwU7ir9jgIBDxdju38uri3B
CDSYPrDrsuFPSLIab/BuaEcbzLsgAAooMbMHFy2WBqw1WtJatGhg+naoJjhaxbec
aOgU140ObnqQdRd2PpLmIRAze5oFvj9TL6NEvkkhWoOW3MUHbV/sgilvN4puL+J+
ligowbwhny+yfk0XtXZk9nU0/en9UYUFvyQgxi9l+KE6wyl1N74RHvELtPOp60lO
MCB/CAF+q5D3XI4g9LNv3kyCBp40Fq5XiVcMOMamNxq7vc8+2IaSzRiySeQ69hdd
hKf7Rm7x4ZjW3bVxFu0DAQi4CSAsz3A+/g0z4GDrZDqZyNy0VxcXTE9ZZrihNvoT
vQARAQABiQI2BBgBCgAgFiEE4KPrIC+OV1KOE+cv11dEg7tXsY0FAmFVmzkCGwwA
CgkQ11dEg7tXsY0EZRAAh9MbJCBdbVa5h2m3AAbYG+BMZsOeSESQCuy0bM7z7WSh
fSafeGE/KhJuAKZtBHopLA1VCF74h3vNwwDxAG+8qbzGxuuzV+Tx18vyiY3dWlf3
0L1ypq6fO53fuZSgPB0gzjCoDcJeSDg7FdTcqMzjumys3ThvOBTHB1gwzQWueZ8C
SxKvd34J7CQ7bUpxjDvgZpI3gbdW37F11KUgLF+HtD1bO9SzTs9rdpGpFesSjoF2
pl2C0plzlB40xgb+CW4GL7T253x1xKejCeas2E4ImmD2ONuOqp7Q31x456cQr/Wq
Je7A4lIDRVza2/Nd0qGBCEILmMlIMD+YpZdQv+WO/d6Gv65wt4O+ufjudKcIsIry
z7bVC28zOiAwmVmnDhOkAakAkIJVTMa9xyFVtquBfj9z9mg6W7LLw96tAVXT6yKk
QRHkQ2/36uBgsrl2z+k+mFWm4IS2RGgDfTtrq4nl/LGwyb9T0MDuFZ8FUPUNPK28
Z1iYWb0tTda5Qc5aCraZcFr0aR4PYToBvt5mvrV+TGvfdVzva/JjcRwtFnwoRUqS
lBSJqC4WqZmkB73i16MljvT0+4v2upmud4JKw2KTowhZjbGLlBgrAMxuDYNv953P
oIbKKuD9uwdPkCrkuL1XQsBDWsHgW9DQ4q0bObr0ZBxJWUzLj/5Ew1iFLz5OoS6Z
AQ0EVpNr7gEIALHInehM2HPmgk4K7vSavEWqP+6oN82bYrw+uvQJDYjvJeKN9NkZ
UiNREjOn5mGZzUuFliU3DAj2K8UW8uhL2QfauTH0Roi4/eWO3FCyREWtfgF6lH38
S8iiLu1S44SoLLalHL/LtFzuzdBu7+w9DXvC9FCrNMqy+iH3DFq3r33SXUwWOUX/
EE4PhBv0skbNzpjxIsQSzuX+8B6wvS+I4wTWFVCT58bQoWiwjfZp42ecsc9lsuJn
ZgRO8jmdE4yGV5IO6ypSlXFfOQgFxUtsLJ4mihGxkCEnoAHyq+E5fHbFMEGAynBo
T8McXpmS+axUHqVE2owuMZ4s6SarHW+NnKcAEQEAAbQyQmh1c2hhbiBTaGFoICht
eWtvbGFiIGFkZHJlc3MpIDxic2hhaEBteWtvbGFiLmNvbT6JAU4EEwEIADgWIQQK
rHdbtkN6jZr3o6z+B4QRf7zhHQUCW4T3zwIbAwULCQgHAgYVCgkICwIEFgIDAQIe
AQIXgAAKCRD+B4QRf7zhHa3OB/0QBQ8tc6WukC9ubRd5A1vEe5tSWvzJEB25mc+Y
fXj3eha9ZhGWSNF7iHQ278aKgyn4HS/Mve+A+w7ZQWtGK1sjxC1E7qn1U1Xx5Boa
dbvEfN8E9Vun0NPLa/FXtz6gTnGPOkgJ6NjQuEy6aKT9lGbHuxXBLPfGfEQrT16n
y0+Nc3Is1cSIWsmyF59vZTH9Z8uJu2C04lyMkE6huTdbLm6YAFzN3U2B/96ZG/9G
Wr1EImuVg9z7vUIlENbG/ARHbdGdTqwKzjLPMhMRmSQt9pjOA0K2/o9y7t6JgQiM
C1DPl21INZHmYES9dlfyEiaLjVYkVunL/tJHXO9RIoqWx5nPtCJCaHVzaGFuIFNo
YWggKGtkZSkgPGJzaGFoQGtkZS5vcmc+iQE3BBMBCAAhBQJXd67SAhsDBQsJCAcC
BhUICQoLAgQWAgMBAh4BAheAAAoJEP4HhBF/vOEdbX8H/RkgAjBjxYvQAKwcBYWm
FCgeASajYAkkb0Ce4LRumAGlvqPdfQLZqTvp6tCbb60l0FS2ydY8RDF7DSZ72Qco
gApvdbvM/y8zKCOQukStd3hk0wa+eywBPJVyNMYZIksEFAD0FiV7phNXr6BxMR6w
Ivs+mi2ukF8Mqpj+WpsJHnekukfRsRiNnPlD5vbFYeC29S/6RM3gnbe/9UdW2gEP
sHiNXFW33eG/UHOa/22quNQnrGSs9vVIKK6oi8gV5Vi1AgpQFwf562wIe4UeKQ4U
rCBMUk6fIAZwU6SnNjQMxmU8aKXL4v0jgMZHRZX5AXsF7rxzsYNEvLPM+zsGnnJG
4+20IEJodXNoYW4gU2hhaCA8Ymh1c2g5NEBnbWFpbC5jb20+iQE3BBMBCAAhBQJW
k2vuAhsDBQsJCAcCBhUICQoLAgQWAgMBAh4BAheAAAoJEP4HhBF/vOEdwkIIAJkj
1i/lgYs4+ViHEmdjsdYwjZwnGe9yvOLO2UnfN5qun4IuDuPyaqGQjAlNmMzLqOwr
P4dVD15AEYH/2zxYu1yrxMrUHdJTklErm59u3nXq131LoVKORTZ3osmAV/UYtUYz
j7+aBN3JmFjN+F75fzurnESdvLPGfRrlhujQoW2x3ZAyIbpQs1lojLSEFxu8xlkX
Y3KkSLRlUoxGgnclhC+ov/+Z9E4jPjz4nZhTuAOem5Swh6yHujD1v3wIlgc1qU8U
1KZ+ulwtwDAVnS0/+WQjXmtal2PiP0wcCIgZdZihTdY/eOY9tepp19SBwUkdNcqz
MbAZyfh8d4t9jsYRH465AQ0EWivdvQEIALOgPIfaCxMoYYORHfLJsJ56uOGP6Ych
INfy7wGVvtNPvnbC4Xp6q8UPSijoukjafw5ZPZFuBZ7E3Qq4Vx/eRTcHoYq40Cah
xFDmUvt6bnDCFlsMXNXCSOUtnhej5clMjCtm7awtkOD25JQry3AmmxAeQv807LBc
iYy+/idRlav1sQyUOgchiS/nsSQX+lktjwXKks7Qj/3Oplu+D8jTig2qGdNUredk
bgZhsVsdvitmuJuBq3Iaw2ilX4l69g9ioxBi7481bmaLV1P2BtHsqUpmE7wpw4Jd
Q+NTBiAPuM+Oqo28mWTVoov5SH9QHOevgVJKCfM7RfBj8zGVJ3H/DcsAEQEAAYkB
NgQYAQgAIBYhBAqsd1u2Q3qNmvejrP4HhBF/vOEdBQJaK929AhsgAAoJEP4HhBF/
vOEd33QIAIV/Wuhv+KHYKkKzwzJYqEZEKReFqSk91W+etHDf72mPB3J+IfokNYCS
gEm4R/570p9uIBBccxLPwTvbJU7v9Utvc0kFcu9txNWOge0W046qquRoWIwFZxbL
wcSl8Xwlhitrt1TAZPrsIRxyzXzHeE9VTIAWQftnjvRGp8KfdCXoLglMkb4KRF65
pzMPf51hPSQ57b2VhmwZoh9Y4b5FM4cgKdoug2Ch/gPFWTd0KGWuSRs8xKnUugk3
X0j089po81j1DTcMezAz9QZbSs1qM1Phxl/SaJEEwb/SP6PaGS9MPvfMpshuzz/S
t5LWesGCOJHMG6cWIm/QAFIuV7WWKpi5AQ0EWivdggEIALrl1fmIdKmDulkGS5xP
l9AYrz5UWNbx+Adsw4AwWNKq2yHT5eP6b28EC5P1aNslWah36BoW6pwZF2Rac1fU
DDpxHa6zKPLp5v9Nn+27hGeel5JCk6XpbJet0LtKrtvyEqX8QsURSxmXY/lSwNEl
oXtHnMIEfvdWb3ChNW8n8xvfrG1WNL/FkKvWX8dIVKP9CX+/hQIlFiIJkulx7gp/
g2AUx6xnBhH/glOuPpXx+Qmxs+NgCqrGM2cGFleEWq8DQVQ7jOl3apQvZuFnETqL
OasldF0ObBP0gcrhztWuWWsxRT2656ogbYNTzkLOLkMOMFNkbBDPmxlCETUxaCKY
x7EAEQEAAYkCbAQYAQgAIBYhBAqsd1u2Q3qNmvejrP4HhBF/vOEdBQJaK92CAhsC
AUAJEP4HhBF/vOEdwHQgBBkBCAAdFiEEs8s2ZVJUC+Bu6a2XEZaMRJKMrvwFAlor
3YIACgkQEZaMRJKMrvxlSQf/dMHVeQbG+d1/2otR3UnBO3T/nJYQ41RIFPO+tNRe
3J7c3qPRAErKNmC3ZF5zROBqvEx1KVy5Pzy05bpuc9jqzmG3H681lNZC0YLg4FXI
qnMiPuHr+T+cHIU6y60Tl+7shBquX0x2Iu8RJqJURlxVBAHLFkRsEugzqtvLA0m4
aPi0S18jwRVROpU5l84yGsOacT4DFxxj429r7hz94XBUt/ApGyoBYJ75Qs3gnmt8
uq1bPOsVVIv5dQv7QHUxR5MW0EM8qGzVjheebo4ddoljjxapWi10iXEoEW+iQbpj
0t1+INwxDnliyjl4Kl11nU8/Z/duRtbPWc+RKkRjj4ObVDaaB/4g4VraKz1/cqbl
iz5ic6v3v+pe3dWGOadRT/PHxvt9ywzsT+vaQqnyKEuId8bSAbaumTg/L3lYW+Bl
0l96Nf6xxLq9cI/CXSCk4si0HHNGxP6qpFNc9sLTw56QzIkqfitF87nq6zpE0dzb
246tTd3gE+3KfbvrfYyDQXuC9+vg80GXcFBr4u6IzD02NryjOlWUhxCg5sNQuCH6
faEhFQJUJNgLJZXSwP/IbgN1e+dvgqLFc+JDtIP34tS6pE7JBX0VTu2NWW7OTeKm
/9q3V6eHGBJijXvyCPsvcaAscqGwRGQRAixwmXyHTtrAeJ7e9mPtPxudnFths9so
2z9DGmaduQENBFaTa+4BCAC8D6XyewOHX+nTc4mBQfLmrmNJu6RX7kY/cwvAsske
vOTNPzgJJtnUJQI1iABWI7U88afjAvU1wzYrBfEfQ43h1cPw6NMY4/cmHe8YimCg
k8cNYKGS0sM3+YJ8hNTSGxKJa7Y3RDxDLK9fSqG1xa6URcctNT57rau7xUtVExFp
N0qGeTtMAOLDp36wY+jSYBpVZ7/Z/j0SDQf9ShU0G2OZMKsZvcH1KadOVW4kT27I
SHN7EJbjdMPCmZytJ+5Sxi9PFHYCr/nR1qBY/j0ouKS71uShzcssz5WgnkmP87fv
sfpfCQJl5SkiPavddodZoBCRRKwqQnV7ns3JFmh7U2+lABEBAAGJAR8EGAEIAAkF
AlaTa+4CGwwACgkQ/geEEX+84R040gf9G+I/AM1ub7UAhPAQPZ25SdIaTH96MV5c
mWsucTnGUy1XDh8I0hZaEB/kkWHOrmbKyqhg/NtgEqXtP/kqJX5ruTt9AN3TSlxJ
+IrCywCm33kS7yPRADgwNshoCf/HH3VujccN4KfDjIuijLSZbfIbG6cGo2bgqz6t
4p9NaZofcQhFfPwAgfv3IL1DNFqZvUohDPy/j5eU7IdDjytLnhGUZTfSrzhWXkCZ
ybKROW05zScMRd5uL3b+in/Zu8rgeE/lLF8nmD42YJ058n+72LjR7P5DqrblbAhL
iQg8CBbrIFJozQUyUDnTzwsGRFuQAx7brypsOSqWfYcVEqXxiJwdrA==
=yyHx
-----END PGP PUBLIC KEY BLOCK-----
